assets/images/tech-crunch.svg

<svg width="191" height="32" viewBox="0 0 191 32" fill="none" xmlns="http://www.w3.org/2000/svg">
<g clip-path="url(#clip0_757_44429)">
<path d="M71.8803 12.4957V24.3811H67.5404V12.4957H63.1509V8.71177H76.2574V12.4957H71.8803Z" fill="white"/>
<path d="M86.4004 19.6546H79.5061C79.6425 20.9572 80.3989 21.5279 81.5025 21.5279C82.5317 21.5279 83.3872 21.3046 84.5404 20.6967L86.078 23.2772C84.6272 24.1333 83.1269 24.6171 81.2917 24.6171C77.7578 24.6171 75.811 22.111 75.811 18.5007C75.811 14.4438 78.0926 12.372 81.1801 12.372C84.404 12.372 86.4128 14.4935 86.4128 18.8605C86.4128 19.2079 86.4128 19.456 86.4004 19.6546ZM81.0685 15.3619C80.1509 15.3619 79.6425 15.9946 79.5061 17.1484H82.8665C82.6557 15.9574 82.2589 15.3619 81.0685 15.3619Z" fill="white"/>
<path d="M93.8898 24.6292C90.4427 24.6292 88.3843 22.4333 88.3843 18.4756C88.3843 14.8654 90.2195 12.3841 93.9766 12.3841C96.1961 12.3841 97.4609 13.4138 98.4901 15.0639L95.7126 17.173C95.1546 16.1432 94.7702 15.647 93.9022 15.647C92.873 15.647 92.3522 16.6767 92.3522 18.5377C92.3522 20.3986 92.9102 21.3539 94.0138 21.3539C94.7702 21.3539 95.3158 20.9321 96.0473 19.8279L98.6017 21.8254C97.2377 23.8352 95.9729 24.6292 93.8898 24.6292Z" fill="white"/>
<path d="M107.616 24.3813V17.7066C107.616 16.1806 107.108 15.7836 106.277 15.7836C105.421 15.7836 104.913 16.1806 104.913 17.6694V24.3813H100.883V9.66719L104.913 8.05435V13.4139C105.657 12.8557 106.475 12.3842 107.864 12.3842C110.443 12.3842 111.671 14.1087 111.671 17.1979V24.3813H107.616Z" fill="white"/>
<path d="M121.306 24.6294C116.656 24.6294 114.163 21.1804 114.163 16.5528C114.163 11.5158 117.114 8.4762 121.318 8.4762C125.162 8.4762 126.687 10.1387 127.766 13.0914L123.835 14.6174C123.277 13.1658 122.744 12.2478 121.306 12.2478C119.495 12.2478 118.714 14.0591 118.714 16.5404C118.714 18.9348 119.47 20.833 121.355 20.833C122.719 20.833 123.302 20.0886 124.145 18.6123L127.815 20.5601C126.774 22.632 125.025 24.6294 121.306 24.6294Z" fill="white"/>
<path d="M137.723 17.0616C137.214 16.5033 136.632 16.0814 135.85 16.0814C134.871 16.0814 134.263 16.5529 134.263 17.9796V24.3814H130.233V12.6324H134.263V13.4885C134.958 12.8185 135.739 12.3967 136.768 12.3967C137.624 12.3967 138.194 12.5952 138.665 12.893L137.723 17.0616Z" fill="white"/>
<path d="M147.295 24.3813V23.5997C146.576 24.158 145.733 24.6294 144.369 24.6294C141.79 24.6294 140.562 22.9049 140.562 19.8157V12.6324H144.617V19.3071C144.617 20.8331 145.125 21.2301 145.956 21.2301C146.787 21.2301 147.295 20.8331 147.295 19.3443V12.6324H151.35V24.3813H147.295Z" fill="white"/>
<path d="M160.985 24.3811V17.7064C160.985 16.1804 160.476 15.7834 159.645 15.7834C158.79 15.7834 158.281 16.1804 158.281 17.6692V24.3811H154.252V12.6322H158.281V13.4138C159.025 12.8555 159.844 12.3841 161.233 12.3841C163.812 12.3841 165.039 14.1086 165.039 17.1978V24.3811H160.985Z" fill="white"/>
<path d="M172.888 24.6292C169.441 24.6292 167.383 22.4333 167.383 18.4756C167.383 14.8654 169.218 12.3841 172.975 12.3841C175.195 12.3841 176.459 13.4138 177.489 15.0639L174.711 17.173C174.153 16.1432 173.769 15.647 172.901 15.647C171.872 15.647 171.351 16.6767 171.351 18.5377C171.351 20.3986 171.909 21.3539 173.012 21.3539C173.769 21.3539 174.314 20.9321 175.046 19.8279L177.6 21.8254C176.236 23.8352 174.971 24.6292 172.888 24.6292Z" fill="white"/>
<path d="M186.615 24.3813V17.7066C186.615 16.1806 186.106 15.7836 185.276 15.7836C184.42 15.7836 183.912 16.1806 183.912 17.6694V24.3813H179.882V9.66719L183.912 8.05435V13.4139C184.656 12.8557 185.474 12.3842 186.863 12.3842C189.442 12.3842 190.669 14.1087 190.669 17.1979V24.3813H186.615Z" fill="white"/>
<path d="M0.333984 2V10.9575H9.28657V28.86H18.2268V10.9575H27.1793V2H0.333984Z" fill="white"/>
<path d="M36.1195 19.9026V10.9575L27.1793 10.9575L27.1793 28.8601H54.0123V19.9026H36.1195Z" fill="white"/>
<path d="M54.0123 2H36.1195L36.1195 10.9575L54.0123 10.9575V2Z" fill="white"/>
</g>
<defs>
<clipPath id="clip0_757_44429">
<rect width="190.667" height="32" fill="white" transform="translate(0.333984)"/>
</clipPath>
</defs>
</svg>

<svg width="191" height="32" fill="none" xmlns="http://www.w3.org/2000/svg"><g clip-path="url(#clip0_757_44429)" fill="#fff"><path d="M71.88 12.496V24.38h-4.34V12.496h-4.39V8.712h13.107v3.784H71.88zm14.52 7.159h-6.894c.136 1.302.893 1.873 1.996 1.873 1.03 0 1.885-.223 3.038-.831l1.538 2.58c-1.45.856-2.951 1.34-4.786 1.34-3.534 0-5.481-2.506-5.481-6.116 0-4.057 2.282-6.129 5.37-6.129 3.223 0 5.232 2.121 5.232 6.488 0 .348 0 .596-.013.795zm-5.332-4.293c-.917 0-1.425.633-1.562 1.786h3.36c-.21-1.19-.607-1.786-1.797-1.786zM93.89 24.63c-3.447 0-5.506-2.197-5.506-6.154 0-3.61 1.835-6.092 5.593-6.092 2.22 0 3.484 1.03 4.513 2.68l-2.777 2.109c-.558-1.03-.943-1.526-1.81-1.526-1.03 0-1.55 1.03-1.55 2.89 0 1.862.557 2.817 1.66 2.817.757 0 1.303-.422 2.034-1.526l2.555 1.997c-1.364 2.01-2.63 2.804-4.712 2.804zm13.726-.249v-6.674c0-1.526-.508-1.923-1.339-1.923-.856 0-1.364.397-1.364 1.885v6.712h-4.03V9.667l4.03-1.613v5.36c.744-.558 1.562-1.03 2.951-1.03 2.579 0 3.807 1.725 3.807 4.814v7.183h-4.055zm13.69.249c-4.65 0-7.143-3.45-7.143-8.077 0-5.037 2.951-8.077 7.155-8.077 3.844 0 5.369 1.663 6.448 4.615l-3.931 1.526c-.558-1.451-1.091-2.37-2.529-2.37-1.811 0-2.592 1.812-2.592 4.293 0 2.395.756 4.293 2.641 4.293 1.364 0 1.947-.744 2.79-2.22l3.67 1.947c-1.041 2.072-2.79 4.07-6.509 4.07zm16.417-7.568c-.509-.559-1.091-.98-1.873-.98-.979 0-1.587.47-1.587 1.898v6.401h-4.03V12.632h4.03v.857c.695-.67 1.476-1.092 2.505-1.092.856 0 1.426.198 1.897.496l-.942 4.169zm9.572 7.319V23.6c-.719.558-1.562 1.03-2.926 1.03-2.579 0-3.807-1.725-3.807-4.814v-7.184h4.055v6.675c0 1.526.508 1.923 1.339 1.923s1.339-.397 1.339-1.886v-6.712h4.055v11.75h-4.055zm13.69 0v-6.675c0-1.526-.509-1.923-1.34-1.923-.855 0-1.364.397-1.364 1.886v6.712h-4.029V12.632h4.029v.782c.744-.559 1.563-1.03 2.952-1.03 2.579 0 3.806 1.725 3.806 4.814v7.183h-4.054zm11.903.249c-3.447 0-5.505-2.197-5.505-6.154 0-3.61 1.835-6.092 5.592-6.092 2.22 0 3.484 1.03 4.514 2.68l-2.778 2.109c-.558-1.03-.942-1.526-1.81-1.526-1.029 0-1.55 1.03-1.55 2.89 0 1.862.558 2.817 1.661 2.817.757 0 1.302-.422 2.034-1.526l2.554 1.997c-1.364 2.01-2.629 2.804-4.712 2.804zm13.727-.249v-6.674c0-1.526-.509-1.923-1.339-1.923-.856 0-1.364.397-1.364 1.885v6.712h-4.03V9.667l4.03-1.613v5.36c.744-.558 1.562-1.03 2.951-1.03 2.579 0 3.806 1.725 3.806 4.814v7.183h-4.054zM.334 2v8.957h8.953V28.86h8.94V10.958h8.952V2H.334zM36.12 19.903v-8.945h-8.94V28.86h26.832v-8.957H36.12zM54.012 2H36.12v8.957h17.892V2z"/></g><defs><clipPath id="clip0_757_44429"><path fill="#fff" transform="translate(.334)" d="M0 0h190.667v32H0z"/></clipPath></defs></svg>
